X:1
T:Götterdämmerung Act 3 Vocal Score
T:Götterdämmerung Act 3 Scene 1 (Vocal Score)
T:Prelude, "Frau Sonne sendet die lichte strahle"
T:WWV 86D, Richard Wagner
T:Made with Musescore 2.1 by LeftRight. Started: March 21. 2018
C:Richard Wagner
%%score { ( 1 4 6 7 ) | ( 2 3 5 8 ) }
L:1/8
Q:1/4=90
M:3/4
K:F
V:1 treble nm="Piano" snm="Pno."
V:4 treble 
V:6 treble 
V:7 treble 
V:2 bass 
V:3 bass 
V:5 bass 
V:8 bass 
V:1
!ff!"^Lebhaft, doch mässig im Zeitmass \n" (3Fc3/2A/ (3FGA (3BAG |[Q:1/4=72] !fermata!c6 | %2
[Q:1/4=90]!f! (3Fc3/2A/ (3FGA (3BAG | (3cBA (3BAG G2- | G2 C4- | C4- (3:2:2C2 z | %6
[K:bass]!f! z/4 C,/4C/4C,/4C/4C,/4C/4C,/4 (!>![_D,_D]2 C2) |!p! !///-!C3 C,3 |!p! !///-!C3 C,3 | %9
!p! !///-!C3 C,3 | !///-!C C,!>(! ([_D,_D]2!>)! C2) |!p! !///-!C3 C,3 |!p! !///-!C3 C,3 | %13
"_cresc." !///-!C C, (6:4:6C/C,/D,/E,/^F,/G,/ (3A,/B,/C/^C/4D/4_E/4=E/4 | %14
!f! (3Fc3/2A/ (3FGA (3BAG | (3cBA (3BAG (3cBA | (3BAG (3AGF (3BAG | A6 |[Q:1/4=45] !fermata!A,6 | %19
[M:9/8][K:bass]!pp! (F,,3- F,,2- F,,/C,/ F,2- F,/A,/ |[K:treble] C2- C/F/ A6-) | A6- A3- | A3 A6- | %23
!pp! A6- A3 | (c6 F,2- F,/A,/ | C2- C/F/ A6 | [Ac]6 A3 | c6 cAF) | %28
!p![Q:1/4=108]!>(! !>![CEBd]6!>)! [FAc]3 |!>(! !>![CEBd]6!>)! [FAc]3 | %30
 ([DFBd]3 [df]3- [df][ce][Bd] |!p! [Ac]6) Tc2- c/ (=B/4c/4) | %32
 [Ac][G_B]>[FA] [Ac]3- ([Ac]/F/C/F/A/B/) |!p! ([Ac][GB]>[F-A] [Bd] [Ac]2- [Ac]2 A || %34
[M:3/4]!pp!!f! [CEG]3) z z2 | G4- G z |!f! (3Fc3/2A/ (3FGA (3BAG | z2 z!pp! G/(G/ .c).e | %38
[M:9/8]!p! g3- g2 [_E^F]/[DG]/ [_D=F]2 [C=E]/[DF]/ | ([B,=DG]6 A,/^C/B,/D/[I:staff +1]G,/B,/) | %40
[I:staff -1] ([Bdg]3- [Bdg]2 [A_e^f]/[Bdg]/ =f2 =e/f/ | [B=dg]6) z/ (G/(3B/d/c/(3B/G/E/) | %42
!p! ([EG]2 [_E^F]/[DG]/ [_D=F]2 [C=E]/[DF]/ T[CE]2 [=B,^D]/[CE]/) | %43
 ([EG]2 [_E^F]/[DG]/ [_D=F]2 [C=E]/[DF]/ T[CE]2 [=B,^D]/[CE]/) | %44
 ([_DF]2 [CE]/[DF]/ [CE]2 [=B,^D]/[CE]/ T[_B,=D]2 [A,^C]/[B,D]/) | %45
 (([_DF]2 [CE]/[DF]/ [CE]2 [=B,^D]/[CE]/ T[_B,=D]2 [A,^C]/[B,D]/)) |!p! (F2 E/F/ E3- E2 ^D/E/) | %47
 ([_B,=D]3- [B,-D]2 [B,^C]/[A,D]/ [B,=C]2 =B,/[G,C]/) | z2 z c6- | %49
!<(!"^cresc." Tc6 Tc2- c/ (=B/4c/4)!<)! |!p! ([FAd]3- [FAd]!p![CF]!p![DG]!p! [EA]!p![FB]!p![Gc]) | %51
!p! ([FAd]3- [FAd]!p![CF]!p![DG]!p! [EA]!p![FB]!p![Gc]) |!p! ([Ad]2 f [Gc-]3 c2) (c | %53
 [Ad]2 f [Gc-]3 c2) (c | d2 f c2 e B2 d) | [EG]3!<(! [FA][GB][Ac] [Bd][ce][df]!<)! | %56
!p! ([Be-g-]3 [Beg]2 [_e^f]/[dg]/ T=f2 =e/[_df]/) | %57
 ([B=dg]3-!<(! [Bdg]2 [_e^f]/!<)![dg]/!>(! T=f2 =e/[_df]/)!>)! | %58
!p! ([Bce]2 [=B^d]/[ce]/!<(! [_B=d]2 [A^c]/[Bd]/ T=c2 =B/c/)!<)! | %59
!>(! ([_Be]2 [=B^d]/[ce]/ [_B=d]2 [A^c]/[Bd]/ [_A=c]2 [G=B]/!>)![Ac]/) | %60
!p! ([F=Ad]3- [FAd]!p![CF]!p![DG]!p! [EA]!p![FB]!p![Gc]) | %61
!p!"_cresc." ([FAd]3- [FAd]!p![EA]!p![FB]!p! [Gc]!p![Ad]!p![Be]) | %62
!p! ([Af]2 [da] [Gc-]3 c!p![Ad]!p![Be]) |!p! ([Af]2 [da] [Gc-]3 c!p![Ad]!p![Be]) | %64
!f!!p! ([Af]2 [da] e2 [cg] d2 [Bf] | (3z/ d/!<(!c/{/d} Tc2 [GB][Ac][Bd] [ce][df][eg])!<)! | %66
!f! ([Af-a-]3 [fa]2 [e^g]/[fa]/!<(! [_e=g]2 [d^f]/[eg]/)!<)! | %67
 ([B_d=f]3 [df]2 [ce]/[df]/"_dim." Tg2 ^f/g/) | %68
 ([_d=f]2 [ce]/[df]/ [ce]3- [ce]/f/(3[ce]/f/[ce]/ [=B^d]/[ce]/) | %69
 ([_B=d]3- [Bd]2 [A^c]/[Bd]/ T=c2 =B/c/) | %70
 ([_Be]2 [=B^d]/[ce]/ [_B=d]2 [A^c]/[Bd]/ T=c2 =B/[_Ac]/ | %71
 [Gd]2 [A^c]/[Bd]/ [A-=c]2 [A=B]/[_Ac]/ [EG_B]2 [C=A]/[B,G]/ | %72
!p! [A,F]2) z z2 z TC2- C/ (=B,/4C/4) | ([_B,D]6 [A,C][G,B,][F,A,]) | %74
!p! z/!<(! (G/(3B/g/f/e/!<)!g/!>(! d/f/c/e/B/d/ A/c/G/B/F/A/!>)! | %75
 E/G/D/F/^C/E/ =C/_E/=B,/D/_B,/_D/!<(! A,/C/^G,/=B,/=G,/_B,/)!<)! | %76
!p! (_A,/C/G,/A,/C/F/ A,/C/G,/A,/C/F/ z/ A,/G,/A,/C/_E/ | _A,/C/G,/A,/C/_E/ _A6) | %78
!p! z/ (G/=A,/B,/C/_E/ TD4-) D3/2 (3(C/4D/4E/4) | (_D/!<(!G/=A,/B,/C/_E/) z2 z (=B3!<)! | %80
!p! [=EGc]2) z z2 z z2 z |!p! ([B,EG]6 B/d/A/c/G/B/ | [FA]) z z z2 z z2 z | %83
 x3 B/c/e/g/c' z (A/d/f/a/) | %84
[M:3/4][I:staff +1] (G,(3C/-E/-[I:staff -1]G/c/e/ g) (3:2:4G/(G/ c).e |"_cresc." [FGg]6 | %86
 [_B,EG]2 Tg7/2 (3(^f/4g/4a/4) | %87
[M:9/8] [Ag]/_e/(3c/A/[I:staff +1]G/(3E/C/A,/!<(![I:staff -1] T_E2- E/ (3(D/4E/4F/4) TA2- A/ (G/4A/4)!<)! | %88
!f! [=Ba]/=f/(3d/B/A/[I:staff +1](3F/D/B,/[I:staff -1] T=F2- F/ E/4F/4 T=B2- B/ (A/4B/4) | %89
 z/"_dim." (e/c/G/E/-C/-) ^F3 =F3 |!p! (3z/ c/B/(3G/E/C/[I:staff +1]B,/G,/[I:staff -1] z2 z z2 z | %91
 ([CFA]6 [_EG]3 | G6)!<(! ^F3!<)! |!>(! [=FG] z/!>)! E/(3G/B/d/ g z z!p! ([B,E] x x | %94
!p! ([=FAd]3-) [=FAd]!p![CF]!p![DG]!p! [EA]!p![FB]!p![Gc]) | %95
!p! ([FAd]3- [FAd]!p![CF]!p![DG]!p! [EA]!p![FB]!p![Gc]) |!p! d/A/F/A/B/f/ c x x G/E/B,/E/G/c/ | %97
 d/A/F/A/B/f/ c x x G/E/B,/E/G/c/ | (d/A/F/A/B/f/) (c/G/E/G/A/e/) (B/F/D/F/G/d/) | %99
 G (3G/d/c/G/B/ F/A/E/G/D/F/ C/E/[I:staff +1]B,/D/A,/C/ |[I:staff -1] [Beg] z2 z2 z z2 z | z9 | %102
 z9 | z9 | z9 | z9 | z9 | z9 | z9 | z9 | z9 |] %111
V:2
 z6 | !fermata!z6 | z6 | z6 | z6 | z2!f! (G,/^F,/E,/D,/ C,/B,,/A,,/G,,/ | [^F,,,^F,,]6-) | %7
 [F,,,F,,]6- | [F,,,F,,]6- | [F,,,F,,]6 | [^F,,,^F,,]6- | [F,,,F,,]6- | [F,,,F,,]6- | %13
 [F,,,F,,]4 ([^F,,,^F,,]2 | .[=F,,,=F,,]) z z2 z2 | z6 | z6 | z6 | z6 |[M:9/8] F,,,6- F,,,3- | %20
 F,,,6- F,,,3- | F,,3- F,,2- F,,/C,/ F,2- F,/A,/ | F,,6- F,,3 | %23
!ped! F,,3- F,,2- F,,/C,/ F,2- F,/A,/!ped-up! |!ped! F,,3- F,,2- F,,/C,/ A,3!ped-up! | %25
 F,,2- F,,/C,/ F,2- F,/A,/ [F,A,]3 | %26
 F,2- F,/[I:staff -1]A,/-[I:staff +1] F,,2- F,,/C,/ F,2- F,/A,/ | ([F,C]3 [C,F,A,]3 [F,,C,F,A,]3) | %28
 [F,,C,G,]6 C/A,/F,/A,/[I:staff -1](3C/F/A/ | %29
[I:staff +1] [F,,C,G,]6 C/A,/F,/A,/[I:staff -1](3C/F/A/ | %30
!<(![I:staff +1]{/F,,,} (F,,/G,,/A,,/B,,/C,/D,/ E,/F,/!<)!G,/!mf!A,/!>(!B,/C/ D/B,/F,/B,/D/E/)!>)! | %31
 F,,/C,/A,/[I:staff -1]C/F/G/ A/F/C/F/A/B/[I:staff +1][K:treble] [A,CFA]3 | %32
[K:bass] F,,2 z ([C,F,A,]/C/A,/C/F/G/ [CFA]) z [C,F,A,] | %33
 CB,>A, [B,D]/C/A,/C/F/G/ [F,CF]2 [F,A,] ||[M:3/4]!ped! [C,,C,]6-!ped-up! | [C,,C,]6- | [C,,C,]6- | %37
 [C,,C,]6 |[M:9/8] [B,E]3- [B,E]2 A,/B,/- B,3 |!ped! [C,,E,]6 x2!ped-up! x | %40
!ped! TC,3- C,-C,/ =B,,/4C,/4 C-!ped-up! (G2 ^F/=F/) |!ped! (C3 [E,B,C]3 [G,B,E]3!ped-up! | %42
!ped![I:staff -1] B,2[I:staff +1] A,/B,/ G,3!ped-up! B,2 ^F,/G,/) | _B,2 A,/B,/ G,3 B,2 ^F,/G,/ | %44
[I:staff -1] _B,3[I:staff +1] (G,2 ^F,/G,/ T=F,2 E,/F,/) | (B,3 G,2 ^F,/G,/ T=F,2 E,/F,/) | %46
[I:staff -1] (B,2- B,/[I:staff +1]A,/ _A,3- A,2 G,/^F,/) | (=F,2 E,/F,/ _G,2- G,/F,/ E,2 ^D,/E,/) | %48
[I:staff -1] _B,2[I:staff +1] (G, [F,_B,]2 [E,A,] [G,B,]2 [F,^G,]/A,/ | %49
 [G,B,]2 [=B,^D]/E/ [_B,=D]2 [A,^C]/D/ [^G,=C]2 [G,=B,]/C/) | %50
!ped! (3z/ C,/F,/(3A,/[I:staff -1]D/C/A,/C/[I:staff +1] (3z/!pp! (G,/!ped-up!^G,/(3A,/!pp!G,/A,/(3B,/!pp!A,/B,/ (3C/!pp!B,/C/(3D/!pp!C/D/E) | %51
 C,/F,/(3A,/[I:staff -1]D/C/A,/C/[I:staff +1] (3z/!pp! (G,/^G,/(3A,/!pp!!pp!G,/A,/(3B,/!pp!A,/B,/ (3C/!pp!B,/C/(3D/!pp!C/D/E) | %52
 (F2 D!ped! E/B,/G,/B,/E/F/ G/E/C/E/)!ped-up![I:staff -1]G/E/ | %53
[I:staff +1] (F2 D E/B,/G,/B,/E/F/ G/E/C/E/)[I:staff -1]G/E/ |[I:staff +1] (F2 TD E2 TC D2 TB,) | %55
!ped! (3(C,/G,/B,/ C2-) C!ped-up! (E/G/D/F/ C/E/B,/D/A,/C/) | %56
!ped! (3C,/B,/E/[I:staff -1](3G/d/c/G/B/-[I:staff +1] C!ped-up! z[K:treble] A/B/ (T_d2 c/) z/ | %57
!ped! E/G/(3B/[I:staff -1]g/f/d/f/ G!ped-up![I:staff +1] z A/B/ (T[B_d]2 c/) z/ | %58
[K:bass]!ped! C,/C/- C2- C3!ped-up![K:treble] B2 [F^G]/A/ | %59
[K:bass]!ped! (C,/G,/(3B,/E/D/!ped-up!C-) C2- C/ (C,/4_A,/4 (TC2) =B,/C/) | %60
!ped! C,/F,/(3A,/[I:staff -1]D/C/A,/C/ F,!ped-up![I:staff +1] (3(A,/!pp!^G,/A,/(3B,/!pp!A,/B,/ (3C/!pp!B,/C/(3D/!pp!C/D/E) | %61
!ped! (3C,/F,/A,/[I:staff -1](3C/G/F/D/F/[I:staff +1] (3z/!pp! (A,/B,/!ped-up!(3C/!pp!B,/C/(3D/!pp!C/D/ (3E/!pp!D/E/(3F/!pp!E/F/G) | %62
!ped! [F,,C,] z F x3!ped-up! (3(E/!pp!D/E/(3F/!pp!E/F/G) | x2 F x3 (3(E/!pp!D/E/(3F/!pp!E/F/G) | %64
!ped! [F,,C,F,] z (TFG)!ped-up! z (TEF) z TD | %65
 (3(C,/G,/C/ [EG])[FA] z/ (B/F/A/E/G/ D/F/C/E/B,/D/) |!ped! [C,A,]3 ([A,C]3!ped-up! [B,_E]3) | %67
!ped! (!>![B,G]2 _D !^!F2)!ped-up![K:treble] (G/A/ TB2 A/B/) | %68
[K:bass] (3(C,/B,/_D/ G2-) (G2 ^F/G/ _A2- A/G/) | (C,/G,/B,/D/) z C6 | (C,/G,/(3B,/E/D/C-) C6 | %71
 (C,/G,/(3_B,/D/C/B,) [CD]2 C,[K:treble] (Tc2{/=B} c) |[K:bass] F,6 TE,2- E,/ (D,/4E,/4) | %73
 F,6- F, z2 |!ped!{/C,,} [C,G,]6- [C,G,]3- | G,3 ^F,!ped-up!=F,E, _E,D,=E, | z2 z (C,6 | %77
 _D,6) [D,F,]3 | [B,_D]3/2 z3/2 z3/2 z3/2 B,/B,/ _EG | B6!ped! _E,3!ped-up! | _B,3 z2 z z2 z | %81
!ped! C,6- C,3-!ped-up! | A, x x x2 x x2 x | %83
 C,/G,/B,/-[I:staff -1]C/E/G/[I:staff +1] ([B,E]3 [A,F]3) |[M:3/4] x2 [CE]2 [CEG]2 | %85
!ped! G,,6!ped-up! | %86
!ped! (6:4:6(C,/G,/_B,/E/[K:treble]G/B/ (6:4:6d/B/G/E/G/B/ (6:4:6e/B/G/E/B,/!ped-up!G,/) | %87
[M:9/8][K:bass]!ped! [C,F,A,_E]6!ped-up! T^F,2- F,/ (=E,/4F,/4) | %88
!ped! [G,,D,=F,G,=B,]2 z (G,3- G,2!ped-up! G) |!ped! [E,C]2 z2 z2!ped-up! _B,,3 | %90
!ped! [C,G,]3 C,!ped-up! z z z2 z | (F,,2 A,, C,6) | B,2 _D F3 C,3 | %93
 (3C,/G,/B,/ (F2 E) z z TG,2- G,/ (^F,/4G,/4) | %94
 (3z/ C,/F,/(3A,/[I:staff -1]D/C/A,/C/[I:staff +1] x (3(A,/!pp!^G,/A,/(3B,/!pp!!pp!A,/B,/ (3C/!pp!B,/C/(3D/!pp!C/D/E) | %95
 C,/F,/(3A,/[I:staff -1]D/C/A,/C/[I:staff +1] x (3(A,/!pp!^G,/A,/(3B,/!pp!A,/B,/ (3C/!pp!B,/C/(3D/!pp!C/D/E) | %96
[I:staff -1] F[I:staff +1] x2 E/B,/G,/B,/E/F/{/=B,} TC2- C/ (B,/4C/4) | %97
[I:staff -1] F[I:staff +1] x2 E/B,/G,/B,/E/F/{/=B,} TC2- C/ (B,/4C/4) | z z DE z CD z B, | %99
 C,6- C,3 | z9 | z9 | z9 | z9 | z9 | z9 | z9 | z9 | z9 | z9 | z9 |] %111
V:3
 x6 | x6 | x6 | x6 | x6 | x2 G,,/^F,,/E,,/D,,/ C,, z | x6 | x6 | x6 | x6 | x6 | x6 | x6 | x6 | x6 | %15
 x6 | x6 | x6 | x6 |[M:9/8] x9 | x9 | F,,,2 x7 | x9 | F,,,2 x7 | x6 F,,3 | %25
 F,,,2 x F,,3- F,,2- F,,/C,/ | F,,3- F,,,2 x F,,3 | x9 | %28
 z/ F,,,/G,,/A,,/B,,/C,/ D,/E,/F,/G,/A,/B,/ F,3 | z/ F,,,/G,,/A,,/B,,/C,/ D,/E,/F,/G,/A,/B,/ F,3 | %30
 x9 | F,,3 [F,A,C] z z[K:treble] x3 |[K:bass] x9 | F,,3 F,3- x3 ||[M:3/4] x6 | x6 | x6 | x6 | %38
[M:9/8] C,6- [C,G,-]2 G,/F,/ | x9 | x6 C3- | x3 C,6 |{/C,,} C,6- C,3 | C,6- C,3 |{/C,,} C,6- C,3 | %45
 C,6- C,3 |{/C,,} C,6- C,3 | C,6- C,3 |{/C,,} C,6- C,3 | C,6 x3 | [F,,,F,,]3- [F,,,F,,] x5 | %51
 F,,3- F,, x5 | F,6- [F,B,]3 | F,6- [F,B,]3 | F,6- F,3 | x9 | x5[K:treble] x G2- G/A/ | %57
 C3- C2 (C G2- G/A/) |[K:bass] x6[K:treble] C3 |[K:bass] x9 | F,,3- F,, x5 | F,,3- F,, x5 | %62
 x3 F,6 | F,6- F,3 | x9 | x3 C6 | (F,,2 A,, C,6) | C,2 x3[K:treble] x C3 |[K:bass] x3 C6 | x9 | %70
 x9 | x6[K:treble] x3 |[K:bass] F,,6- F,,3 | F,,6- F,,3 | x9 | C,6- C,3 | x9 | x9 | _E,6 x3 | %79
 B,3 G,3 x3 | C,6- C,3 | x9 | C,6- C,3 | C,6 F,3 |[M:3/4] G,6 | x6 | C,6[K:treble] | %87
[M:9/8][K:bass] x9 | x9 | A,,6 x3 | x9 | x9 | C,6- x3 | C,6 C, z z | [F,,,F,,]6 x3 | F,,6 x3 | %96
 F,6- F,3 | F,6- F,3 | F,6- F,3 | x9 | x9 | x9 | x9 | x9 | x9 | x9 | x9 | x9 | x9 | x9 | x9 |] %111
V:4
 x6 | x6 | x6 | x6 | x6 | x6 |[K:bass] x2 !///-!_D C, !///-!C C, | z3/2!f! .C/ C4- | %8
 C z!f! (3.G2 C3 .D | (3E3/2.G/ G4- G z | x2 !///-!_D C, !///-!C C, | z3/2!f! .C/ C4- | %12
 C z!f! (3.G2 C3 .D | (3.E3/2.G/ G4- G z | .[F,=CF] x5 | x6 | x6 | x6 | x6 |[M:9/8][K:bass] x9 | %20
[K:treble] x9 | x9 | C2- C/F/- F3 C3 | A,3 F3 C3 | A3 x6 | x3 C3 C2-"_cresc." C/F/ | %26
 C3 [F,-A,C-]2 [F,C]/[A,F]/ C2- C/F/ | C2- C/F/ [C-A]3 [CF]3 | x9 | x9 | x6 F2 G | x9 | x9 | %33
 x3 F3 A/F/C/F/A/c/ ||[M:3/4] (3.G2 C3 .D (3E3/2.G/G- | x6 | x6 | G4- (3:2:2G2 z | %38
[M:9/8] G3- G2 x4 |[I:staff +1] E,/[I:staff -1]G,/(3B,/A/G/E/G/ D/F/C/E/B,/D/ x3 | %40
 E3- E2 z [B_d]3 |[I:staff +1] (E/G/[I:staff -1](3B/a/g/d/f/) (G/B/(3d/f/e/B/d/) x3 | x9 | x9 | %44
 x9 | x9 | =D2- D/_D/ C2 =B,/C/ D2 =C | x9 | ([CE]2 [=B,^D]/[CE]/ =D2 ^C/D/ =C2 =B,/C/ | E2) x7 | %50
 x3 F, x5 | x3 F, x5 | z/ A/F/A/B/F/ x6 | z/ A/F/A/B/F/ x6 | A/A/F/A/B G/G/E/G/A F/F/D/F/G | %55
 z/ (E/(3G/d/c/G/B/) x6 | x9 | x9 | z (3E/B/A/[I:staff +1] G F2 E[I:staff -1] G2 x | G3 F3 E3 | %60
 x9 | x9 | z/ c/A/c/d/A/[I:staff +1] E/C/B,/[I:staff -1]E/G/A/ B x2 | %63
 z/ c/A/c/d/A/[I:staff +1] E/C/B,/[I:staff -1]E/G/A/ B x2 | %64
 z/ c/A/c/d/A/ z/ B/G/B/c/G/ z/ A/F/A/B/F/ | [GB] x8 | z/ c/(3f/d'/c'/a/c'/ c x2 G3 | %67
 z/ (F/!>(!(3_d/g/f/d/-f/-) B x2!>)! =d2 _e/d/ | G (3z/ F/B/ x7 | %69
 F2 E/F/ _G2- G/[I:staff +1]F/ [E=G]2 [D_A]/[EG]/ | %70
[I:staff -1] G2- G/[I:staff +1]^F/ (=F2- F/E/ [D-_A]2 [DG]/E/) | %71
[I:staff -1] F2- F/[I:staff +1]E/ x5[I:staff -1] E | x6 G,3 | x9 | [B,-E-G]6 [B,-E]3 | B,3 x6 | %76
 x6 C3 | x3[I:staff +1] (G,/_A,/[I:staff -1]F/A,/C/_D/ G,/A,/F/A,/C/D/) | x9 | %79
 x3 T=D4- D3/2 (3C/4D/4_E/4 | x9 | %81
[I:staff +1] (3C,/G,/B,/E/[I:staff -1]G/(3B/g/f/ e/g/d/f/c/e/ x3 | x9 | x9 |[M:3/4] x6 | %85
[I:staff +1] (6:4:6(G,,/D,/G,/=B,/D/[I:staff -1]F/ (6:4:6G/=B/d/g/f/d/ (6:4:6B/G/[I:staff +1]F/D/B,/G,/) | %86
 x6 |[M:9/8] x6[I:staff -1] _E3 | x6 D x2 | [EGc]3 [CE]3- [CE]2 [_B,D] | [B,E]3 x6 | %91
 z (A,/C/(3F/d/!<(!c/ A) z z x3!<)! | z (B,/F/(3G/_d/c/ B) z z x3 | %93
 x6 (3z/!<(! C/D/(3E/F/G/(3A/B/c/!<)! | x3[I:staff +1] C, x5 | x3 C, x5 | x9 | x9 | x9 | %99
 (3C,/B,/[I:staff -1]E/ x8 | x9 | x9 | x9 | x9 | x9 | x9 | x9 | x9 | x9 | x9 | x9 |] %111
V:5
 x6 | x6 | x6 | x6 | x6 | x6 | x6 | x6 | x6 | x6 | x6 | x6 | x6 | x6 | x6 | x6 | x6 | x6 | x6 | %19
[M:9/8] x9 | x9 | F,,6- F,,3- | x9 | x9 | x9 | x9 | x9 | x9 | x9 | x9 | x9 | x6[K:treble] x3 | %32
[K:bass] x9 | x C,2 x6 ||[M:3/4] x6 | x6 | x6 | x6 |[M:9/8] x9 | x9 | x9 | x9 | x9 | x9 | x9 | x9 | %46
 x9 | x9 | x9 | x2 ^F, =F,2 E, D,2 E, | x9 | x9 | x9 | x9 | x9 | x9 | x5[K:treble] x4 | x9 | %58
[K:bass] x6[K:treble] x3 |[K:bass] x9 | x9 | x9 | x9 | x9 | x9 | x9 | x9 | x5[K:treble] x4 | %68
[K:bass] x9 | x9 | x9 | x6[K:treble] x3 |[K:bass] x9 | x9 | x9 | x9 | x9 | x9 | x9 | x9 | x9 | x9 | %82
 x9 | x9 |[M:3/4] x6 | x6 | x4/3[K:treble] x14/3 |[M:9/8][K:bass] x9 | x9 | x9 | x9 | x9 | x9 | %93
 x9 | x9 | x9 | x9 | x9 | x9 | x9 | x9 | x9 | x9 | x9 | x9 | x9 | x9 | x9 | x9 | x9 | x9 |] %111
V:6
 x6 | x6 | x6 | x6 | x6 | x6 |[K:bass] x6 | x6 | x6 | x6 | x6 | x6 | x6 | x6 | x6 | x6 | x6 | x6 | %18
 x6 |[M:9/8][K:bass] x9 |[K:treble] x9 | x9 | x9 | x9 | C2- C/F/ A3 x3 | x9 | x9 | x9 | x9 | x9 | %30
 x9 | x9 | x9 | x9 ||[M:3/4] x6 | x6 | x6 | x6 |[M:9/8] x9 | x9 | x9 | x9 | x9 | x9 | x9 | x9 | %46
 x9 | x9 | x9 | x9 | x9 | x9 | x9 | x9 | x9 | x9 | x9 | x9 | x9 | x9 | x9 | x9 | x9 | x9 | x9 | %65
 x9 | x9 | x9 | x9 | x9 | x9 | x9 | x9 | x9 | x9 | x9 | x9 | x9 | x9 | x9 | x9 | x9 | x9 | x9 | %84
[M:3/4] x6 | x6 | x6 |[M:9/8] x9 | x9 | x9 | x9 | x9 | x9 | x9 | x9 | x9 | x9 | x9 | x9 | x9 | x9 | %101
 x9 | x9 | x9 | x9 | x9 | x9 | x9 | x9 | x9 | x9 |] %111
V:7
 x6 | x6 | x6 | x6 | x6 | x6 |[K:bass] x6 | x6 | x6 | x6 | x6 | x6 | x6 | x6 | x6 | x6 | x6 | x6 | %18
 x6 |[M:9/8][K:bass] x9 |[K:treble] x9 | x9 | x9 | x9 | x9 | x6 F3 | x9 | A3 x6 | x9 | x9 | x9 | %31
 x9 | x9 | x9 ||[M:3/4] x6 | x6 | x6 | x6 |[M:9/8] x9 | x9 | x9 | x9 | x9 | x9 | x9 | x9 | x9 | %47
 x9 | x9 | x9 | x9 | x9 | x9 | x9 | x9 | x9 | x9 | x9 | x9 | x9 | x9 | x9 | x9 | x9 | x9 | x9 | %66
 x9 | x9 | x9 | x9 | x9 | x9 | x9 | x9 | x9 | x9 | x9 | x9 | x9 | x9 | x9 | x9 | x9 | x9 | %84
[M:3/4] x6 | x6 | x6 |[M:9/8] x9 | x9 | x9 | x9 | x9 | x9 | x9 | x9 | x9 | x9 | x9 | x9 | x9 | x9 | %101
 x9 | x9 | x9 | x9 | x9 | x9 | x9 | x9 | x9 | x9 |] %111
V:8
 x6 | x6 | x6 | x6 | x6 | x6 | x6 | x6 | x6 | x6 | x6 | x6 | x6 | x6 | x6 | x6 | x6 | x6 | x6 | %19
[M:9/8] x9 | x9 | x9 | x9 | x9 | x9 | x9 | x9 | x9 | x9 | x9 | x9 | x6[K:treble] x3 |[K:bass] x9 | %33
 x9 ||[M:3/4] x6 | x6 | x6 | x6 |[M:9/8] x9 | x9 | x9 | x9 | x9 | x9 | x9 | x9 | x9 | x9 | x9 | %49
 x9 | x9 | x9 | x9 | x9 | x9 | x9 | x5[K:treble] x4 | x9 |[K:bass] x6[K:treble] x3 |[K:bass] x9 | %60
 x9 | x9 | x9 | x9 | x9 | x9 | x9 | x5[K:treble] x4 |[K:bass] x9 | x9 | x9 | x6[K:treble] x3 | %72
[K:bass] x9 | x9 | x9 | x9 | x9 | x9 | x9 | x9 | x9 | x9 | x9 | x9 |[M:3/4] x6 | x6 | %86
 x4/3[K:treble] x14/3 |[M:9/8][K:bass] x3 F,3 C,3 | x9 | x9 | x9 | x9 | x9 | x9 | x9 | x9 | x9 | %97
 x9 | x9 | x9 | x9 | x9 | x9 | x9 | x9 | x9 | x9 | x9 | x9 | x9 | x9 |] %111

